img/document_icon.svg

<svg height="196" viewBox="0 0 154 196" width="154" xmlns="http://www.w3.org/2000/svg"><g fill="#d3205c"><path d="m148.698 39.417-31.734-33.832c-3.075-3.285-8.8-5.585-13.273-5.585h-93.445c-5.589 0-10.246 4.188-10.246 9.774v176.453c0 5.586 4.657 9.773 10.246 9.773h133.516c5.579 0 10.238-4.188 10.238-9.773v-133.464c0-4.4-2.314-10.138-5.302-13.346zm-8.005 3.583h-26.693v-29.194zm5.307 143.227c0 1.174-1.07 1.773-2.238 1.773h-133.516c-1.157 0-2.246-.62-2.246-1.773v-176.453c0-1.154 1.089-1.774 2.246-1.774h93.445c.629 0 1.309-.221 2.309-.008v38.635c0 2.209 1.617 4.373 3.826 4.373h35.76c.184 0 .414 1.126.414 1.763z"/><path d="m27 98h100v8h-100z"/><path d="m27 67h100v8h-100z"/><path d="m27 153h100v8h-100z"/><path d="m27 122h100v8h-100z"/></g></svg>

<svg xmlns="http://www.w3.org/2000/svg" width="154" height="196" viewBox="0 0 154 196">
  <g fill="#D3205C">
    <path d="M148.698,39.417 L116.964,5.585 C113.889,2.3 108.164,0 103.691,0 L10.246,0 C4.657,0 0,4.188 0,9.774 L0,186.227 C0,191.813 4.657,196 10.246,196 L143.762,196 C149.341,196 154,191.812 154,186.227 L154,52.763 C154,48.363 151.686,42.625 148.698,39.417 Z M140.693,43 L114,43 L114,13.806 L140.693,43 Z M146,186.227 C146,187.401 144.93,188 143.762,188 L10.246,188 C9.089,188 8,187.38 8,186.227 L8,9.774 C8,8.62 9.089,8 10.246,8 L103.691,8 C104.32,8 105,7.779 106,7.992 L106,46.627 C106,48.836 107.617,51 109.826,51 L145.586,51 C145.77,51 146,52.126 146,52.763 L146,186.227 L146,186.227 Z"/>
    <rect width="100" height="8" x="27" y="98"/>
    <rect width="100" height="8" x="27" y="67"/>
    <rect width="100" height="8" x="27" y="153"/>
    <rect width="100" height="8" x="27" y="122"/>
  </g>
</svg>
